X: 475
T:Sweet Girl
S:from record Folkdance Underground vol. 3 F.U.3
O:Armenia
F: http://www.youtube.com/watch?v=doOzX-dVciY
F: http://www.youtube.com/watch?v=piSysDxXHPU
F: http://www.youtube.com/watch?v=4_s_luQ2DVk
L:1/8
M:2/4
Q:1/4=150
K:GDor
%%MIDI gchord fzfz
|: "F"z2 AB    |c2 c2      | "Gm"d2 dB   | "F"c4  |\
   "F"cB"Gm"dB |"Gm"BA"F"cA| AG"Gm"BA    | "C"G4  :|
|: "F"z2 "Am"ef| "C"g2 g2  | "F"f2 "Am"ef| "Gm"d4 |\
   "F"c2 AB    | c2 c2     | "Gm"B2 "F"AB| "C"G4  :|



